X:1
T:The Wanderer
T:Beverly Francis Carradine, 1899
T:The Wanderer
T:Public Domain
T:Public Domain
T:Public Domain
T:Public Domain
C:Beverly Francis Carradine, 1899
Z:Public Domain
%%score ( 1 2 ) ( 3 4 )
L:1/8
M:4/4
K:C
V:1 treble 
V:2 treble 
V:3 bass 
V:4 bass 
V:1
 C[CE] | [EG][EG] [EG]>[FA] [EG][CE][B,D]C | [Cc][Fc] [Fc]>[Fc] [Ec]2 C[CE] | %3
w: 1.~I had|dered off from Heav- en, On the mount-|cold and gray, When I heard my|
w: 2.~I was|ing in the tem- ple With the Sav-|by my side, Where the mul- ti-|
w: 3.~Ma- ny|ly friends had left me, While the va-|room and chair, Were re- mind- ers|
w: 4.~Then I|at once that Je- sus Could be bet-|far than all; He could light- en|
w: 5.~So I|the Sav- ior call- ing, “Come thou wear-|one a- way,” And my an- swer|
 [EG][EG] [EG]>[EG] [FA][EG][CE][CE] | [CE][CD] [CD]>[A,C] [B,D]2 C[CE] | %5
w: ior call- ing, To His lost sheep far|a- way; How I list- ened as|
w: as- sem- bled, In its mis- er- y|and pride; Glanc- ing up- ward from|
w: the pric- es I had paid down to|be there; I was brood- ing o’er|
w: the path- way, Could sur- round me like|a wall; He could take the place|
w: ly fol- lowed, “Lord, I’m com- ing home|to- day”; Now His lov- ing arms|
 [EG][EG] [EG]>[FA] [EG][CE][B,D]C | [Cc][Fc] [Gc]>[Gd] [Ge]2 [Ge][Gd] | %7
w: tear drops Coursed a- down like fall- ing|While His ten- der words of prom-|
w: la- bor I just caught His dis- tant|“You have placed your work be- tween|
w: loss- es When the Sav- ior spoke to|“You ahve let your sor- rows set-|
w: loved ones, Wipe the fall- ing tears a-|Turn my sor- rows in- to laugh-|
w: round me, And my head is on His|While I catch His faint- est whis-|
 [Ac]>[^GB] [Ac][FA] [E=G]<[CE] [EG]>G | [Ec][Ec] [Fd]>[FB] [Ec]2 ||"^Refrain" [EG][EG] | %10
w: ise, Made my spir- it glad a- gain.|||
w: us, Come and talk with Me a- while.”|||
w: tle, Like a cloud ’tween Me and thee.”|oh, come to Me,” said|Je- sus,|
w: ter, Change the night- tide in- to day.|||
w: per, And my spir- it is at rest.|||
 [FB][FB] [FB]>[FG] [EA]<[EG] [EG]G | [Fc][Fc] [Fc]>[FA] | [EG]2 [EG][EG] | %13
w: |||
w: |||
w: Come and I will give you rest, I|take a- way the|bur- den From|
w: |||
w: |||
 [FB][FB] [FB]>[FG] [EA][EG][EG]G | [Fc][Fc] [Fc]>[FA] [EG]2 |] %15
w: ||
w: ||
w: the heav- y la- den breast. * *||
w: ||
w: ||
V:2
 C x | x7 C | x6 C x | x8 | x6 C x | x7 C | x8 | x15/2 G/ | x6 || x2 | x7 G | x4 | x4 | x7 G | %14
w: wan-|ains|Sav-||the|rain,|||||||||
w: work-|ior|tude||my|smile,|||||||||
w: ear-|cant|of||my|me,||“Come,|||will||||
w: saw|ter|up||of|way,|||||||||
w: heard|y|quick-||are|breast,|||||||||
 x6 |] %15
w: |
w: |
w: |
w: |
w: |
V:3
 [C,E,][C,G,] | [C,C][C,C] [C,C]>[C,C] [C,C][C,G,][D,G,][E,_B,] | %2
w: ~ ~|~ ~ ~ ~ ~ ~ ~ ~|
 [F,A,][F,A,] [F,A,]>[F,A,] [C,G,]2 [C,E,][C,G,] | [C,C][C,C] [C,C]>[C,C] [C,C][C,C][C,G,][C,G,] | %4
w: ~ ~ ~ ~ ~ ~ ~|~ ~ ~ ~ ~ ~ ~ ~|
 [D,^F,][D,F,] [D,F,]>[D,F,] [G,,G,]2 [C,E,][C,G,] | %5
w: ~ ~ ~ ~ ~ D.S.~N- o|
 [C,C][C,C] [C,C]>[C,C] [C,C][C,G,][D,G,][E,_B,] | [F,A,][F,A,] [E,C]>[G,B,] C2 [C,C][E,C] | %7
w: mat- ter who the wand- ’rer, Nor how|far he’s gone a- stray, Be- hold,|
 [F,C]>[F,C] [F,C][F,C] [C,C]<[C,G,] [C,C]>[E,C] | [G,C][G,C] [G,B,]>[G,D] [C,C]2 || [C,C][C,C] | %10
w: so- ev- er com- eth, I will com-|fort him to- day. *||
 [G,D][G,D] [G,D]>[G,B,] [C,C]<[C,C] [C,C][E,_B,] | [F,A,][F,A,] [F,A,]>[F,C] | [C,C]2 [C,C][C,C] | %13
w: |||
 [G,D][G,D] [G,D]>[G,B,] [C,C][C,C][C,C][C,_B,] | [F,A,][F,A,] [F,A,]>[F,C] [C,C]2 |] %15
w: ||
V:4
 x2 | x8 | x8 | x8 | x8 | x8 | x4 C2 x2 | x8 | x6 || x2 | x8 | x4 | x4 | x8 | x6 |] %15
w: ||||||who-|||||||||

